X: 42272
T: Weave The Bog Cotton
R: reel
M: 4/4
K: Edorian
ed|:B2 ED E2 ed|BEED EAGA|FDDE D2 dc|dAFA DAFA|
GEED E2 ef|edBA BAGF|G2 DG GBdB|AFDE FE E2:|
|:e3d (3Bcd ed|(3Bcd ef gfef|dBAF D2 FA|d2 fd edBA|
Beed (3Bcd ef|g3f gfed|B2 AB GBdB|AFDE FE E2:|

